X: 28
T: 25. DANCE TUNE
B: Sam Bayard, "Hill Country Tunes" 1944 #25
N: Copied from manuscript of Denune Provance, Peachen, Fayette County, PA, Sep 21 1943.
S: Learned from traditional players about Dunbar.
R: jig
M: 6/8
L: 1/8
Z: 2010 John Chambers <jc:trillian.mit.edu>
K: C
g^fg c'2e | g^fg .c'2c | BdB GAB |1 cBc g3 :|2 c3- c3 ||
|: g^fg age | cBc G2c | BAB GAB |1 cBc g3 :|2 c3- c2z |]

%%sep 2 1 500
%%sep 1 1 500

